src/assets/emoji/noto-emoji/27BF.svg

<svg enable-background="new 0 0 128 128" viewBox="0 0 128 128" xmlns="http://www.w3.org/2000/svg"><linearGradient id="a" x1="64.05" x2="64.05" y1="-1589.7" y2="-1662.3" gradientTransform="matrix(1 0 0 -1 0 -1562)" gradientUnits="userSpaceOnUse"><stop stop-color="#757575" offset="0"/><stop stop-color="#6C6C6C" offset=".21"/><stop stop-color="#525252" offset=".5583"/><stop stop-color="#424242" offset=".7436"/><stop stop-color="#424242" offset="1"/></linearGradient><path d="m95.2 34.4c-0.2 0.1-0.5 0.1-0.8 0-5.5-2.5-16.7-6.7-30.3-6.7s-24.8 4.2-30.3 6.7c-0.2 0.1-0.5 0.1-0.8 0-10.3-3.9-17.2-5.2-25-5.2-2.2 0-4 1.8-4 4v6.4c0 2.2 1.8 4 3.9 4 2.2 0 4.1 0.3 7.2 0.8 0.8 0.1 1.1 1.1 0.6 1.7-7.7 8.1-11.2 18.7-9.6 30.8 1.8 13.3 13.6 23.4 27.7 23.4 13.9 0 25.8-10.1 27.6-23.4 1.7-12.6-2.1-23.5-10.5-31.8-0.6-0.5-0.3-1.5 0.5-1.7 3.8-0.9 8.1-1.5 12.8-1.5s9 0.6 12.8 1.5c0.8 0.2 1 1.1 0.5 1.7-8.5 8.3-12.3 19.3-10.6 31.8 1.8 13.3 13.6 23.4 27.7 23.4 13.9 0 25.8-10.1 27.6-23.4 1.6-12.1-1.8-22.8-9.6-30.9-0.6-0.6-0.2-1.5 0.6-1.7 3.5-0.6 5.3-0.9 7.9-0.8 1.7 0 3-1.3 3-3v-7.4c0-2.2-1.8-4-4-4-7.9 0.1-14.6 1.4-24.9 5.3zm-48 40.7c-0.9 6.8-7.5 10.9-13.5 10.9-5.9 0-12.4-4.1-13.3-10.9-1.4-10.7 2.8-18.8 12.5-24.2 0.6-0.3 1.3-0.3 1.9 0 9.6 5.4 13.8 13.5 12.4 24.2zm60.7 0c-0.9 6.8-7.5 10.9-13.5 10.9-5.8 0-12.4-4.1-13.3-10.9-1.4-10.7 2.8-18.8 12.5-24.2 0.6-0.3 1.3-0.3 1.9 0 9.7 5.4 13.8 13.5 12.4 24.2z" fill="url(#a)"/><g opacity=".2"><path d="m64.2 30.7c13.1 0 23.8 4 29.1 6.4 0.5 0.2 1.1 0.4 1.7 0.4 0.5 0 1-0.1 1.4-0.3 9.6-3.6 16-5 23.7-5 0.6 0 1 0.5 1 1v7.4h-0.3c-2.7 0-4.7 0.3-8.1 0.9-1.4 0.3-2.6 1.3-3.1 2.7-0.4 1.4-0.1 2.9 0.9 4 7.2 7.5 10.2 17.3 8.8 28.4-1.6 11.8-12.1 20.8-24.6 20.8s-23.2-8.9-24.8-20.8c-1.5-11.5 1.8-21.6 9.6-29.2 1-1 1.4-2.5 1.1-3.9-0.4-1.4-1.5-2.5-2.9-2.8-4.5-1-9.1-1.6-13.4-1.6s-8.9 0.5-13.4 1.6c-1.4 0.3-2.5 1.4-3 2.8-0.4 1.4 0 2.9 1 3.9 7.8 7.6 11.1 17.7 9.6 29.2-1.6 11.8-12.1 20.8-24.6 20.8s-23.2-8.9-24.8-20.8c-1.5-11.1 1.6-20.9 8.8-28.4 1-1.1 1.4-2.6 0.9-4s-1.6-2.4-3.1-2.7c-3.1-0.5-5.2-0.9-7.7-0.9-0.5 0-1-0.5-1-1v-6.4c0-0.3 0.2-0.6 0.3-0.7s0.4-0.3 0.7-0.3c7.8 0 14.5 1.4 24 5 0.5 0.2 0.9 0.3 1.4 0.3 0.6 0 1.1-0.1 1.6-0.4 5.3-2.4 16.1-6.4 29.2-6.4m30.2 58.3c9.6 0 15.6-7 16.5-13.5 1.6-11.8-3.3-21.2-14-27.2-0.7-0.4-1.6-0.6-2.4-0.6s-1.7 0.2-2.4 0.6c-10.7 6-15.5 15.4-14 27.2 1.1 8.4 9.2 13.5 16.3 13.5m-60.7 0c9.5 0 15.6-7 16.5-13.5 1.6-11.8-3.3-21.2-14-27.2-0.7-0.4-1.6-0.6-2.4-0.6s-1.7 0.2-2.4 0.6c-10.7 6-15.5 15.4-14 27.2 1.1 8.4 9.2 13.5 16.3 13.5m30.4-61.3c-13.7 0-24.8 4.2-30.3 6.7-0.1 0.1-0.3 0.1-0.4 0.1s-0.2 0-0.3-0.1c-10.3-3.9-17.2-5.2-25-5.2-2.2 0-4 1.8-4 4v6.4c0 2.2 1.8 4 3.9 4 2.2 0 4.1 0.3 7.2 0.8 0.8 0.1 1.1 1.1 0.6 1.7-7.9 8.1-11.3 18.7-9.7 30.8 1.8 13.3 13.6 23.4 27.7 23.4 13.9 0 25.8-10.1 27.6-23.4 1.7-12.6-2.1-23.5-10.5-31.8-0.6-0.5-0.3-1.5 0.5-1.7 3.8-0.9 8.1-1.5 12.7-1.5 4.7 0 9 0.6 12.8 1.5 0.8 0.2 1 1.1 0.5 1.7-8.4 8.3-12.2 19.3-10.5 31.8 1.8 13.3 13.6 23.4 27.7 23.4 13.9 0 25.8-10.1 27.6-23.4 1.6-12.1-1.8-22.8-9.6-30.9-0.6-0.6-0.2-1.5 0.6-1.7 3.3-0.6 5.1-0.8 7.6-0.8h0.3c1.6 0 3-1.3 3-3v-7.4c0-2.2-1.8-4-4-4-7.7 0-14.5 1.3-24.8 5.2-0.1 0-0.2 0.1-0.3 0.1s-0.3 0-0.4-0.1c-5.6-2.4-16.8-6.6-30.5-6.6zm30.3 58.3c-5.8 0-12.4-4.1-13.3-11-1.4-10.7 2.8-18.8 12.5-24.2 0.3-0.2 0.6-0.2 1-0.2 0.3 0 0.7 0.1 1 0.2 9.7 5.4 13.9 13.5 12.5 24.2-1.1 6.9-7.7 11-13.7 11zm-60.7 0c-5.9 0-12.4-4.1-13.3-10.9-1.4-10.7 2.8-18.8 12.5-24.2 0.3-0.2 0.6-0.2 1-0.2 0.3 0 0.7 0.1 1 0.2 9.7 5.4 13.9 13.5 12.5 24.2-1.1 6.8-7.7 10.9-13.7 10.9z" fill="#eee"/></g></svg>

<?xml version="1.0" encoding="utf-8"?>
<!-- Generator: Adobe Illustrator 24.0.3, SVG Export Plug-In . SVG Version: 6.00 Build 0)  -->
<svg version="1.1" id="Layer_1" xmlns="http://www.w3.org/2000/svg" xmlns:xlink="http://www.w3.org/1999/xlink" x="0px" y="0px"
	 viewBox="0 0 128 128" style="enable-background:new 0 0 128 128;" xml:space="preserve">
<linearGradient id="SVGID_1_" gradientUnits="userSpaceOnUse" x1="64.05" y1="95.5805" x2="64.05" y2="31.2758">
	<stop  offset="0.4852" style="stop-color:#504F4F"/>
	<stop  offset="1" style="stop-color:#757575"/>
</linearGradient>
<path style="fill:url(#SVGID_1_);" d="M95.2,34.4c-0.2,0.1-0.5,0.1-0.8,0c-5.5-2.5-16.7-6.7-30.3-6.7s-24.8,4.2-30.3,6.7
	c-0.2,0.1-0.5,0.1-0.8,0c-10.3-3.9-17.2-5.2-25-5.2c-2.2,0-4,1.8-4,4v6.4c0,2.2,1.8,4,3.9,4c2.2,0,4.1,0.3,7.2,0.8
	c0.8,0.1,1.1,1.1,0.6,1.7C8,54.2,4.5,64.8,6.1,76.9c1.8,13.3,13.6,23.4,27.7,23.4c13.9,0,25.8-10.1,27.6-23.4
	c1.7-12.6-2.1-23.5-10.5-31.8c-0.6-0.5-0.3-1.5,0.5-1.7c3.8-0.9,8.1-1.5,12.8-1.5s9,0.6,12.8,1.5c0.8,0.2,1,1.1,0.5,1.7
	C69,53.4,65.2,64.4,66.9,76.9c1.8,13.3,13.6,23.4,27.7,23.4c13.9,0,25.8-10.1,27.6-23.4c1.6-12.1-1.8-22.8-9.6-30.9
	c-0.6-0.6-0.2-1.5,0.6-1.7c3.5-0.6,5.3-0.9,7.9-0.8c1.7,0,3-1.3,3-3v-7.4c0-2.2-1.8-4-4-4C112.2,29.2,105.5,30.5,95.2,34.4z
	 M47.2,75.1C46.3,81.9,39.7,86,33.7,86c-5.9,0-12.4-4.1-13.3-10.9C19,64.4,23.2,56.3,32.9,50.9c0.6-0.3,1.3-0.3,1.9,0
	C44.4,56.3,48.6,64.4,47.2,75.1z M107.9,75.1C107,81.9,100.4,86,94.4,86c-5.8,0-12.4-4.1-13.3-10.9c-1.4-10.7,2.8-18.8,12.5-24.2
	c0.6-0.3,1.3-0.3,1.9,0C105.2,56.3,109.3,64.4,107.9,75.1z"/>
</svg>
